dist/svg/export.svg

<!-- Generated by Trend Micro Style Portal -->
<svg version="1.1" xmlns="http://www.w3.org/2000/svg" width="16" height="16" viewBox="0 0 16 16">
  <title>export</title>
  <path fill="rgb(34,34,34)" d="M9 3h3v-2.5l4 4-4 4v-2.5h-3c-4 0-5 3-5 3v-1c0-2.8 2.2-5 5-5zM14 14h-12v-12h4v-1h-4c-0.5 0-1 0.5-1 1v12c0 0.5 0.5 1 1 1h12c0.5 0 1-0.5 1-1v-5h-1v5z"></path>
</svg>

<svg width="16" height="16" viewBox="0 0 16 16" fill="rgb(34, 34, 34)" xmlns="http://www.w3.org/2000/svg"><title>export</title><path d="M9 3H12V0.5L16 4.5L12 8.5V6H9C5 6 4 9 4 9V8C4 5.2 6.2 3 9 3ZM14 14H2V2H6V1H2C1.5 1 1 1.5 1 2V14C1 14.5 1.5 15 2 15H14C14.5 15 15 14.5 15 14V9H14V14Z" fill="rgb(34, 34, 34)" fill-opacity="1.00"/></svg>
